!!!OTL: Der Hausierer (245), S. 433
!!!id: T0433
**kern
*clefG2
*k[]
*G:
{16g
=1
16g
8.g
16g
8g
8g
=2
4g
4d
=3
4d}
4r
=4
{8.b
16b
8b
8b
=5
4b
4g
=6
4g}
4r
=7
*M3/4
{4dd
4dd
8dd
8ee
=8
4dd
4cc
4cc}
=9
{4cc
4g
4b
=10
4b
4a
4a}
=11
{4a
4d
4d
=12
*M2/4
4g}
4r
==
*-
!!!minrhy: 16
!!!meters: 2/4 3/4]  ZZ[5
!!!cut: Der Hausierer (245), S. 433
!!!reg: Luxemburg
!!!trd: Singendes Volk, Esch-Alzette, 1937 posth.
!!!rhy1:   X_.XX_X_  X__X__  X__0__
!!!rhy2: X_.XX_X_  X__X__  X__0__
!!!key: T0433  16  G 2/4 3/4]  ZZ[5
!!!mod: SECHSTONSKALA DUR ?]  AMBITUS[9
!!!kad: -51421
!!!akz: 11-5_331_55_43_21_
!!!fot: 'a__b__as"as"c__
!!!for: 'a__a__b__c__cw_
!!!fok: '\__\__\__\__Vd_
!! PHRAS[VOLLTAKTIG]
!!!fkt: Berufslied
!!!bem: Hamm, fff Susanna Erasmy, 15.6.1933
!! THILL; Mathias
!! PR[49] 2K[2] 2G[10] 3K[0] 3G[2] 4A[7] 4Ü[0] 5A[2] 6K[0] 6G[0]
!! 7K[0] 7G[0] 8A[0] MEHR[0] SI[24] ABS[41] SR[12] SP[12]
!! ST[12] 2k[5] 2g[15] 3k[2] 3g[2] 4d[0] 4ü[0] 5d[0] 6k[0] 6g[2]
!! 7k[0] 7g[0] 8d[0] mehr[0] si[27] dm[-3] sr[20] sp[7]
!! 1F[9] 2F[83] 3F[9] 4F[0] LF[0] 2P[0] 3P[0] 4P[0] TRI[0] DF[3] AB[46]
!! TF[0] U3K[0] U3[0] U4[0] U4Ü[0] U5[14] U6K[0] U6[0] U7K[0] U7[0]
!! N1[24] N2K[0] N2[7] N3K[0] N3[14] N4[12] N4Ü[0] N5[21] N6K[0] N6[7]
!!!n7k: 0] N7[0] O1[0] O2K[0] O2[0] O3K[0] O3[0] HÖ[0
